X:1
T:’Tis Christmas Day
T:’Tis Christmas Day
T:Joseph W. Lerman
T:Joseph W. Lerman, 1907
T:Public Domain Courtesy of the Cyber Hymnal™
T:Public Domain Courtesy of the Cyber Hymnal™
C:Joseph W. Lerman
Z:Public Domain
Z:Courtesy of the Cyber Hymnal™
%%score 1 ( 2 3 )
L:1/8
Q:1/4=93
M:2/4
K:Bb
V:1 treble 
V:2 bass 
V:3 bass 
V:1
 [Fd] | [Ec][DB] [DA][DG] | [A,EG] [A,EF]2 [A,EF] | [A,EG][A,EA] [B,EB][CEc] | [DFd]3 [Fd] | %5
w: 1.~The|bells are sweet- ly|chim- ing, Their|mu- sic fills the|air; What|
w: 2.~What|mean these gifts a-|bun- dant That|on this day we|see? For|
w: 3.~And|why these smil- ing|fac- es A-|round the pret- ty|tree? What|
 [Fe][Fd] [F=B][FG] | [EG] [Ec]2 [Ec] | [EAc]"^riten."[EAc] [D^G=B][DGB] | !fermata![EAc]3 || %9
w: mess- age do they|bring us Up-|on this morn- ing|fair?|
w: sure- ly they mean|some- thing; What|may their im- port|be?|
w: mean these joy- ous|car- ols? Pray|tell us if you|please.|
"^Refrain" [EF] | [DF][DG] [DG][DA] | [DA][DB] [DA][DB] | [Ec][EG] [FG][FG] | [EG]3 [EG] | %14
w: “’Tis|Christ- mas day!” the|glad bells say, *|||
w: “’Tis|Christ- mas day!” these|tok- ens say, “A|Sav- ior now is|born, By|
w: “’Tis|Christ- mas day!” these|things all say, *|||
 [CEA][CEB] [CEA][CE] x3 | [CEG][CEA] [CEG][CE] x3 | [B,D][B,DG] [B,DG][B,DG] | [B,DG]3 [DF] | %18
w: ||||
w: God’s great love sent|from a- bove To|cheer the world for-|lorn.” O|
w: ||||
 [DF][DG] [DG][DA] | [DA][DB] [DA][DB] | [Ec][EG] [FG][FG] | [EG]3 [EG] | [^CB][CA] [CB][CG] | %23
w: |||||
w: won- drous birth! let|all the earth Re-|ceive the new- born|King; Oh,|let us now with|
w: |||||
 [DF][DF] !fermata![=B,DG][B,D] | [CE][DF] [CEG][CEA] | [DFB]3 |] %26
w: |||
w: sac- red vow Our|loy- al trib- ute|bring.|
w: |||
V:2
 z | B,,F, F,,F, | C,F, F,,F, | C,F, F,,F, | (B,,D, F,)B, | G,,G, G,,G, | C, (E, G,)C | %7
 F,,F, F,,F, | (F,,A,,/C,/ !fermata!F,) || F, | B,,F, F,,F, | B,,F, F,,F, | E,,E, D,,D, | %13
 (C,,E,, G,,)C, | z x6 | z x6 | B,,F, F,,F, | (B,,F, D,)B,, | B,,F, F,,F, | B,,F, F,,F, | %20
 E,,E, D,,D, | (C,,E,, G,,)C, | =E,,=E, E,,E, | [F,,F,][_A,,_A,] !fermata![G,,G,] z | C,G, F,,F, | %25
 [B,,F,]3 |] %26
V:3
 x | x4 | x4 | x4 | x4 | x4 | x4 | x4 | x3 || x | x4 | x4 | x4 | x4 | (F,,4 F,)F,F, | %15
 (F,,4 F,)F,F, | x4 | x4 | x4 | x4 | x4 | x4 | x2 =E,,2 | x4 | x4 | x3 |] %26

